X:1
T:Banks of Marble
M:2/4
L:1/8
K:C
 G2| G G3-| GG FF| E E3-| E2 c2| c4-| cc BA| G4-| G2 G2| F4-| FF GA|\
 G E3-| E2 E2| F4-| FF DB,| C4-| C2 G2| G- G3-| GG FF| E E3-| E2 c2|\
 c4-| cc BA| G4-| G2 G2| F4-| FF GA| G E3-| E2 E2| F4-| FF DB,| C4-|\
 C2 GG| c3 c|e-c c2| A G3-| G2 EF| G4-| GA GF| E4-| E2 GG| c3 c|e-c c2|\
 A G3-| G2 EF| G4-| GA FB,| C4-| C2||
